src/Palette/64/status/weather-snow.svg

<?xml version="1.0" encoding="UTF-8" standalone="no"?>
<!-- Created with Inkscape (http://www.inkscape.org/) -->

<svg
   width="64"
   height="64"
   viewBox="0 0 64 64"
   version="1.1"
   id="svg5"
   inkscape:version="1.3 (0e150ed6c4, 2023-07-21)"
   sodipodi:docname="weather-snow.svg"
   xmlns:inkscape="http://www.inkscape.org/namespaces/inkscape"
   xmlns:sodipodi="http://sodipodi.sourceforge.net/DTD/sodipodi-0.dtd"
   xmlns="http://www.w3.org/2000/svg"
   xmlns:svg="http://www.w3.org/2000/svg">
  <sodipodi:namedview
     id="namedview7"
     pagecolor="#ffffff"
     bordercolor="#000000"
     borderopacity="0.25"
     inkscape:showpageshadow="2"
     inkscape:pageopacity="0.0"
     inkscape:pagecheckerboard="0"
     inkscape:deskcolor="#d1d1d1"
     inkscape:document-units="px"
     showgrid="false"
     inkscape:zoom="12.234375"
     inkscape:cx="31.959132"
     inkscape:cy="32"
     inkscape:window-width="1920"
     inkscape:window-height="984"
     inkscape:window-x="0"
     inkscape:window-y="29"
     inkscape:window-maximized="1"
     inkscape:current-layer="svg5"
     showguides="false" />
  <defs
     id="defs2" />
  <path
     d="m 32.000004,10 c -7.044305,0.0068 -12.986606,5.246317 -13.875002,12.234378 -0.697924,-0.15384 -1.410328,-0.2324 -2.125,-0.23436 C 10.477153,22.000018 6,26.477171 6,32.00002 c 0,5.522849 4.477153,10.000001 10.000002,10.000001 0.415444,-0.0028 0.830312,-0.0316 1.242188,-0.08592 v 0.07812 h 30.476568 v -0.0156 c 0.09364,0.0092 0.1874,0.0168 0.28124,0.0236 C 53.522847,42.000221 58,37.523069 58,32.00022 58,26.477371 53.522847,22.000218 47.999998,22.000218 c -0.710008,0.0084 -1.41712,0.092 -2.109376,0.25 C 45.008694,15.249853 39.055505,9.9998 32.000004,10.000016 Z"
     style="opacity:0.2;fill:#000000;stroke-width:4"
     id="path4" />
  <path
     d="m 32.000004,9 c -7.044305,0.0068 -12.986606,5.246317 -13.875002,12.234378 -0.697924,-0.15384 -1.410328,-0.2324 -2.125,-0.23436 C 10.477153,21.000018 6,25.477171 6,31.000019 c 0,5.522849 4.477153,10.000002 10.000002,10.000002 0.415444,-0.0028 0.830312,-0.0316 1.242188,-0.08592 v 0.07812 h 30.476568 v -0.0156 c 0.09364,0.0092 0.1874,0.0168 0.28124,0.0236 C 53.522847,41.000221 58,36.523068 58,31.000219 58,25.477371 53.522847,21.000218 47.999998,21.000218 c -0.710008,0.0084 -1.41712,0.092 -2.109376,0.25 C 45.008694,14.249837 39.055505,8.999784 32.000004,9 Z"
     style="fill:#f2f2f2;fill-opacity:1;stroke-width:4"
     id="path3" />
  <path
     id="path11"
     style="opacity:0.2;fill:#000000;fill-opacity:1;stroke-width:1.68325"
     d="M 18.25 44 L 16.421875 45.773438 L 14 46.5 L 14.589844 49 L 14 51.5 L 16.421875 52.226562 L 18.25 54 L 20.078125 52.226562 L 22.5 51.5 L 21.910156 49 L 22.5 46.5 L 20.078125 45.773438 L 18.25 44 z M 32.25 44 L 30.421875 45.773438 L 28 46.5 L 28.589844 49 L 28 51.5 L 30.421875 52.226562 L 32.25 54 L 34.078125 52.226562 L 36.5 51.5 L 35.910156 49 L 36.5 46.5 L 34.078125 45.773438 L 32.25 44 z M 46.25 44 L 44.421875 45.773438 L 42 46.5 L 42.589844 49 L 42 51.5 L 44.421875 52.226562 L 46.25 54 L 48.078125 52.226562 L 50.5 51.5 L 49.910156 49 L 50.5 46.5 L 48.078125 45.773438 L 46.25 44 z M 25.25 54 L 23.421875 55.773438 L 21 56.5 L 21.589844 59 L 21 61.5 L 23.421875 62.226562 L 25.25 64 L 27.078125 62.226562 L 29.5 61.5 L 28.910156 59 L 29.5 56.5 L 27.078125 55.773438 L 25.25 54 z M 40.25 54 L 38.421875 55.773438 L 36 56.5 L 36.589844 59 L 36 61.5 L 38.421875 62.226562 L 40.25 64 L 42.078125 62.226562 L 44.5 61.5 L 43.910156 59 L 44.5 56.5 L 42.078125 55.773438 L 40.25 54 z " />
  <path
     id="path12"
     style="fill:#edfafe;fill-opacity:1;stroke-width:1.68325"
     d="M 18.25 43 L 16.421875 44.773438 L 14 45.5 L 14.589844 48 L 14 50.5 L 16.421875 51.226562 L 18.25 53 L 20.078125 51.226562 L 22.5 50.5 L 21.910156 48 L 22.5 45.5 L 20.078125 44.773438 L 18.25 43 z M 32.25 43 L 30.421875 44.773438 L 28 45.5 L 28.589844 48 L 28 50.5 L 30.421875 51.226562 L 32.25 53 L 34.078125 51.226562 L 36.5 50.5 L 35.910156 48 L 36.5 45.5 L 34.078125 44.773438 L 32.25 43 z M 46.25 43 L 44.421875 44.773438 L 42 45.5 L 42.589844 48 L 42 50.5 L 44.421875 51.226562 L 46.25 53 L 48.078125 51.226562 L 50.5 50.5 L 49.910156 48 L 50.5 45.5 L 48.078125 44.773438 L 46.25 43 z M 25.25 53 L 23.421875 54.773438 L 21 55.5 L 21.589844 58 L 21 60.5 L 23.421875 61.226562 L 25.25 63 L 27.078125 61.226562 L 29.5 60.5 L 28.910156 58 L 29.5 55.5 L 27.078125 54.773438 L 25.25 53 z M 40.25 53 L 38.421875 54.773438 L 36 55.5 L 36.589844 58 L 36 60.5 L 38.421875 61.226562 L 40.25 63 L 42.078125 61.226562 L 44.5 60.5 L 43.910156 58 L 44.5 55.5 L 42.078125 54.773438 L 40.25 53 z " />
</svg>

<?xml version="1.0" encoding="UTF-8" standalone="no"?>
<!-- Created with Inkscape (http://www.inkscape.org/) -->

<svg
   width="64"
   height="64"
   viewBox="0 0 64 64"
   version="1.1"
   id="svg5"
   inkscape:version="1.3 (0e150ed6c4, 2023-07-21)"
   sodipodi:docname="weather-snow.svg"
   xmlns:inkscape="http://www.inkscape.org/namespaces/inkscape"
   xmlns:sodipodi="http://sodipodi.sourceforge.net/DTD/sodipodi-0.dtd"
   xmlns="http://www.w3.org/2000/svg"
   xmlns:svg="http://www.w3.org/2000/svg">
  <sodipodi:namedview
     id="namedview7"
     pagecolor="#ffffff"
     bordercolor="#000000"
     borderopacity="0.25"
     inkscape:showpageshadow="2"
     inkscape:pageopacity="0.0"
     inkscape:pagecheckerboard="0"
     inkscape:deskcolor="#d1d1d1"
     inkscape:document-units="px"
     showgrid="false"
     inkscape:zoom="12.234375"
     inkscape:cx="31.959132"
     inkscape:cy="32"
     inkscape:window-width="1920"
     inkscape:window-height="984"
     inkscape:window-x="0"
     inkscape:window-y="29"
     inkscape:window-maximized="1"
     inkscape:current-layer="svg5"
     showguides="false" />
  <defs
     id="defs2" />
  <path
     id="path4"
     style="opacity:0.2;fill:#000000;stroke-width:4"
     d="M 32 10 C 24.955702 10.0068 19.013395 15.246321 18.125 22.234375 C 17.427077 22.080535 16.714671 22.00196 16 22 C 10.477157 22 6 26.477157 6 32 C 6 37.522843 10.477157 42 16 42 L 48 42 C 53.522843 42 58 37.522843 58 32 C 58 26.477157 53.522843 22 48 22 C 47.289993 22.0084 46.58288 22.092 45.890625 22.25 C 45.008698 15.249642 39.055494 9.999784 32 10 z " />
  <path
     id="path3"
     style="fill:#f2f2f2;fill-opacity:1;stroke-width:4"
     d="M 32 9 C 24.955709 9.0068 19.013394 14.246328 18.125 21.234375 C 17.427078 21.080535 16.71467 21.00196 16 21 C 10.477163 21 6 25.477164 6 31 C 6 36.522837 10.477163 41 16 41 L 48 41 C 53.522837 41 58 36.522837 58 31 C 58 25.477164 53.522837 21 48 21 C 47.289994 21.0084 46.582879 21.092 45.890625 21.25 C 45.008699 14.249633 39.055487 8.999784 32 9 z " />
  <path
     id="path11"
     style="opacity:0.2;fill:#000000;fill-opacity:1;stroke-width:1.68325"
     d="M 18.25 44 L 16.421875 45.773438 L 14 46.5 L 14.589844 49 L 14 51.5 L 16.421875 52.226562 L 18.25 54 L 20.078125 52.226562 L 22.5 51.5 L 21.910156 49 L 22.5 46.5 L 20.078125 45.773438 L 18.25 44 z M 32.25 44 L 30.421875 45.773438 L 28 46.5 L 28.589844 49 L 28 51.5 L 30.421875 52.226562 L 32.25 54 L 34.078125 52.226562 L 36.5 51.5 L 35.910156 49 L 36.5 46.5 L 34.078125 45.773438 L 32.25 44 z M 46.25 44 L 44.421875 45.773438 L 42 46.5 L 42.589844 49 L 42 51.5 L 44.421875 52.226562 L 46.25 54 L 48.078125 52.226562 L 50.5 51.5 L 49.910156 49 L 50.5 46.5 L 48.078125 45.773438 L 46.25 44 z M 25.25 54 L 23.421875 55.773438 L 21 56.5 L 21.589844 59 L 21 61.5 L 23.421875 62.226562 L 25.25 64 L 27.078125 62.226562 L 29.5 61.5 L 28.910156 59 L 29.5 56.5 L 27.078125 55.773438 L 25.25 54 z M 40.25 54 L 38.421875 55.773438 L 36 56.5 L 36.589844 59 L 36 61.5 L 38.421875 62.226562 L 40.25 64 L 42.078125 62.226562 L 44.5 61.5 L 43.910156 59 L 44.5 56.5 L 42.078125 55.773438 L 40.25 54 z " />
  <path
     id="path12"
     style="fill:#edfafe;fill-opacity:1;stroke-width:1.68325"
     d="M 18.25 43 L 16.421875 44.773438 L 14 45.5 L 14.589844 48 L 14 50.5 L 16.421875 51.226562 L 18.25 53 L 20.078125 51.226562 L 22.5 50.5 L 21.910156 48 L 22.5 45.5 L 20.078125 44.773438 L 18.25 43 z M 32.25 43 L 30.421875 44.773438 L 28 45.5 L 28.589844 48 L 28 50.5 L 30.421875 51.226562 L 32.25 53 L 34.078125 51.226562 L 36.5 50.5 L 35.910156 48 L 36.5 45.5 L 34.078125 44.773438 L 32.25 43 z M 46.25 43 L 44.421875 44.773438 L 42 45.5 L 42.589844 48 L 42 50.5 L 44.421875 51.226562 L 46.25 53 L 48.078125 51.226562 L 50.5 50.5 L 49.910156 48 L 50.5 45.5 L 48.078125 44.773438 L 46.25 43 z M 25.25 53 L 23.421875 54.773438 L 21 55.5 L 21.589844 58 L 21 60.5 L 23.421875 61.226562 L 25.25 63 L 27.078125 61.226562 L 29.5 60.5 L 28.910156 58 L 29.5 55.5 L 27.078125 54.773438 L 25.25 53 z M 40.25 53 L 38.421875 54.773438 L 36 55.5 L 36.589844 58 L 36 60.5 L 38.421875 61.226562 L 40.25 63 L 42.078125 61.226562 L 44.5 60.5 L 43.910156 58 L 44.5 55.5 L 42.078125 54.773438 L 40.25 53 z " />
</svg>
